X:909
T:Cocktail, The
T:Manglam, An
R:reel
D:Mick O'Brien And Caoimhin O'Raghallaigh: Kitty Lie Over
D:Cathal McConnell: Long Expectant Comes At Last
D:Marcas O Murchu: O' Bheal go Beal
D:Desi Wilkinson: The Three Piece Flute
Z:id:hn-reel-909
M:C|
L:1/8
K:D
DF~F2 D2FE | DF~F2 AFEF | DF~F2 D2ed | cABG AFEF :|
|: A2~A2 EA~A2 | A2~A2 BG~G2 |1 A2~A2 EAAB | =cABG AGEG :|2 A2~A2 E2ag | fgef dBAF ||
P:variations
|: DF~F2 D2fe | dF~F2 AEFE | DF~F2 Dfed |1 c2AG EFGE :|2 cAAG EFGE ||
|: A2~A2 EA~A2 | EA~A2 BAGB |1 A2~A2 EAAB | =cAAG EFGE :|2 A2~a2 abag | f2ef dBAF ||
P:more variations
|: DFFE ~F3E | DF~F2 AFEF | DFFE D2Ad |1 cAAG EFGE :|2 cAAG EFGE ||
|: A4 A2GE | A2GA BAGB |1 A2A2 A3B | =cBcG EFGE :|2 A2~a2 a3g | fdef dBAF ||

